Simply-White-Circles/scalable/apps/tomato.svg

<svg xmlns="http://www.w3.org/2000/svg" width="48" height="48" viewBox="0 0 12.7 12.7"><path d="M8.81 3.4c-.53-.01-.87.04-1.07.09a.12.12 0 0 0-.03.22c.63.37.8.85.85 1.17.01.12-.13.19-.21.1a2.17 2.17 0 0 0-1.43-.58.12.12 0 0 0-.12.13 3.38 3.38 0 0 1-.59 2.04.12.12 0 0 1-.2 0c-.3-.47-.3-1.7-.3-2.07a.12.12 0 0 0-.11-.12c-.54-.07-1.18.36-1.57.68-.1.08-.24-.02-.19-.14.3-.7.77-1.07 1.02-1.23a.12.12 0 0 0-.03-.22 1.18 1.18 0 0 0-.26-.06 10.48 10.48 0 0 0-1.35.29A4.07 4.07 0 0 0 1.7 6.83c0 2.34 2.08 4.24 4.65 4.24 2.57 0 4.65-1.9 4.65-4.24a4.12 4.12 0 0 0-1.9-3.4l-.21-.02-.08-.01zM2.6 5.49h.07c.1.04.14.15.1.24-.06.2-.1.4-.12.6 0 .1-.09.17-.18.17h-.01c-.1 0-.18-.1-.17-.2.01-.23.06-.47.14-.7.03-.06.1-.1.17-.11zM2.42 6.9c.1-.01.2.06.2.16.04.22.11.43.22.62a.18.18 0 1 1-.3.19 2.07 2.07 0 0 1-.28-.76c-.01-.1.06-.2.16-.2z" fill="red" opacity=".75"/><path d="M6.34.07a6.29 6.29 0 0 0-6.29 6.3 6.29 6.29 0 0 0 6.3 6.28 6.29 6.29 0 0 0 6.28-6.29A6.29 6.29 0 0 0 6.34.07zM6.32 1l.01.01a5.4 5.4 0 0 1 5.4 5.4 5.4 5.4 0 0 1-5.4 5.41 5.4 5.4 0 0 1-5.41-5.4A5.4 5.4 0 0 1 6.32 1zm-.37.48c-.16 0-.3.16-.3.36v.91c0 .09-.08.15-.16.14a3.3 3.3 0 0 0-2.32.36c-.13.08-.05.28.1.25a2.86 2.86 0 0 1 1.4.02c.11.04.12.18.03.24-.28.18-.79.6-1.12 1.37-.06.13.1.25.2.16.44-.36 1.14-.84 1.74-.76.07.01.13.07.13.14 0 .4 0 1.77.33 2.28.05.09.17.09.23.01.2-.29.67-1.06.65-2.26 0-.08.06-.15.14-.15.3.01 1.01.1 1.58.65.1.1.25.01.23-.11-.04-.36-.24-.89-.94-1.3-.1-.06-.09-.22.03-.25a5.1 5.1 0 0 1 1.35-.1c.14 0 .2-.17.08-.25-.52-.33-1.5-.8-2.43-.37a.14.14 0 0 1-.2-.12v-.86c0-.2-.13-.36-.3-.36h-.45z" fill="#e6e6e6"/></svg>

<?xml version="1.0" encoding="UTF-8" standalone="no"?>
<svg
   xmlns:dc="http://purl.org/dc/elements/1.1/"
   xmlns:cc="http://creativecommons.org/ns#"
   xmlns:rdf="http://www.w3.org/1999/02/22-rdf-syntax-ns#"
   xmlns:svg="http://www.w3.org/2000/svg"
   xmlns="http://www.w3.org/2000/svg"
   xmlns:sodipodi="http://sodipodi.sourceforge.net/DTD/sodipodi-0.dtd"
   xmlns:inkscape="http://www.inkscape.org/namespaces/inkscape"
   width="48"
   height="48"
   viewBox="0 0 12.7 12.7"
   version="1.1"
   id="svg6"
   sodipodi:docname="tomato.svg"
   inkscape:version="0.92.4 (5da689c313, 2019-01-14)">
  <metadata
     id="metadata12">
    <rdf:RDF>
      <cc:Work
         rdf:about="">
        <dc:format>image/svg+xml</dc:format>
        <dc:type
           rdf:resource="http://purl.org/dc/dcmitype/StillImage" />
        <dc:title></dc:title>
      </cc:Work>
    </rdf:RDF>
  </metadata>
  <defs
     id="defs10" />
  <sodipodi:namedview
     pagecolor="#ffffff"
     bordercolor="#666666"
     borderopacity="1"
     objecttolerance="10"
     gridtolerance="10"
     guidetolerance="10"
     inkscape:pageopacity="0"
     inkscape:pageshadow="2"
     inkscape:window-width="1087"
     inkscape:window-height="480"
     id="namedview8"
     showgrid="false"
     inkscape:zoom="4.9166667"
     inkscape:cx="2.1355932"
     inkscape:cy="24"
     inkscape:window-x="0"
     inkscape:window-y="25"
     inkscape:window-maximized="0"
     inkscape:current-layer="svg6" />
  <path
     d="M 8.81,3.4 C 8.28,3.39 7.94,3.44 7.74,3.49 A 0.12,0.12 0 0 0 7.71,3.71 C 8.34,4.08 8.51,4.56 8.56,4.88 8.57,5 8.43,5.07 8.35,4.98 A 2.17,2.17 0 0 0 6.92,4.4 0.12,0.12 0 0 0 6.8,4.53 3.38,3.38 0 0 1 6.21,6.57 a 0.12,0.12 0 0 1 -0.2,0 C 5.71,6.1 5.71,4.87 5.71,4.5 A 0.12,0.12 0 0 0 5.6,4.38 C 5.06,4.31 4.42,4.74 4.03,5.06 3.93,5.14 3.79,5.04 3.84,4.92 4.14,4.22 4.61,3.85 4.86,3.69 A 0.12,0.12 0 0 0 4.83,3.47 1.18,1.18 0 0 0 4.57,3.41 10.48,10.48 0 0 0 3.22,3.7 4.07,4.07 0 0 0 1.7,6.83 c 0,2.34 2.08,4.24 4.65,4.24 2.57,0 4.65,-1.9 4.65,-4.24 A 4.12,4.12 0 0 0 9.1,3.43 L 8.89,3.41 Z M 2.6,5.49 h 0.07 c 0.1,0.04 0.14,0.15 0.1,0.24 -0.06,0.2 -0.1,0.4 -0.12,0.6 0,0.1 -0.09,0.17 -0.18,0.17 H 2.46 C 2.36,6.5 2.28,6.4 2.29,6.3 2.3,6.07 2.35,5.83 2.43,5.6 2.46,5.54 2.53,5.5 2.6,5.49 Z M 2.42,6.9 c 0.1,-0.01 0.2,0.06 0.2,0.16 0.04,0.22 0.11,0.43 0.22,0.62 A 0.18,0.18 0 1 1 2.54,7.87 2.07,2.07 0 0 1 2.26,7.11 C 2.25,7.01 2.32,6.91 2.42,6.91 Z"
     id="path2"
     inkscape:connector-curvature="0"
     style="opacity:0.75;fill:#ff0000" />
  <path
     d="M 6.34,0.07 A 6.29,6.29 0 0 0 0.05,6.37 6.29,6.29 0 0 0 6.35,12.65 6.29,6.29 0 0 0 12.63,6.36 6.29,6.29 0 0 0 6.34,0.07 Z M 6.32,1 6.33,1.01 a 5.4,5.4 0 0 1 5.4,5.4 5.4,5.4 0 0 1 -5.4,5.41 A 5.4,5.4 0 0 1 0.92,6.42 5.4,5.4 0 0 1 6.32,1 Z M 5.95,1.48 c -0.16,0 -0.3,0.16 -0.3,0.36 V 2.75 C 5.65,2.84 5.57,2.9 5.49,2.89 A 3.3,3.3 0 0 0 3.17,3.25 C 3.04,3.33 3.12,3.53 3.27,3.5 a 2.86,2.86 0 0 1 1.4,0.02 C 4.78,3.56 4.79,3.7 4.7,3.76 4.42,3.94 3.91,4.36 3.58,5.13 3.52,5.26 3.68,5.38 3.78,5.29 4.22,4.93 4.92,4.45 5.52,4.53 5.59,4.54 5.65,4.6 5.65,4.67 c 0,0.4 0,1.77 0.33,2.28 C 6.03,7.04 6.15,7.04 6.21,6.96 6.41,6.67 6.88,5.9 6.86,4.7 6.86,4.62 6.92,4.55 7,4.55 7.3,4.56 8.01,4.65 8.58,5.2 8.68,5.3 8.83,5.21 8.81,5.09 8.77,4.73 8.57,4.2 7.87,3.79 7.77,3.73 7.78,3.57 7.9,3.54 A 5.1,5.1 0 0 1 9.25,3.44 C 9.39,3.44 9.45,3.27 9.33,3.19 8.81,2.86 7.83,2.39 6.9,2.82 A 0.14,0.14 0 0 1 6.7,2.7 V 1.84 C 6.7,1.64 6.57,1.48 6.4,1.48 Z"
     id="path4"
     inkscape:connector-curvature="0"
     style="fill:#e6e6e6" />
</svg>
